X:1
T:James Gibb editions
T:Libera me, Domine - Fux
T:#
%%score [ 1 2 3 4 ]
L:1/8
Q:1/4=160
M:none
K:F
V:1 treble nm="Soprano" snm="S"
V:2 treble nm="Alto" snm="A"
V:3 treble-8 nm="Tenor" snm="T"
V:4 bass nm="Bass" snm="B"
V:1
"^Johann Joseph Fux\n(1660-1741)""^Libera me, Domine" B6 B2 A4 A4 | (B12 d4 | G4) G4 ^F8 | %3
w: Li- be- ra me,|Do\- *|* mi- ne,|
 z4 d4 B8 | A2 A2 (B8 A4 | B8) A8 | z8 z4 G4 | d12 c4 | B8 A4 (A4- || %9
w: de mor-|te ae- ter\- *|* na,|in|di- e|il- la tre\-|
[M:6/2] A2 G2 (G8) ^F2 E2 F8) || G16 || G12 D4 | d8 B4 G4 | A4 B4 c4 A4 | (B12 A4) | B16 | z16 | %17
w: * * men\- * * *|da.|Quan- do|coe- li mo-|ven- di sunt et|ter\- *|ra:||
 z8 G8 | B6 B2 A4 d4- | d4 c4 _e4 d4 | c6 c2 F4 B4 | (c4 A4) B4 F4 | G8 G8 | ^F4 (G8 F4) | %24
w: dum|ve- ne- ris ju\-|* di- ca- re|sae- cu- lum per|i\- * gnem, per|i- gnem,|per i\- *|
 G16!fine! || z16 | B12 A4 | (B4 _A4 G8) | F4 G4 _A8 | G4 B4 B8- | B4 B4 (A4 F2 G2 | %31
w: gnem.||Tre- mens|fa\- * *|ctus sum e-|go, et ti\-|* me- o, * *|
 A2 B2 c2 d2 c4) c4- | c4 c4 =B8 | =B4 d4 G6 G2 | G8 c6 c2 | _B4 _A4 G4 G4 ||[M:6/2] F6 _E2 F16 || %37
w: * * * * * ti\-|* me- o,|dum dis- cus- si-|o ve- ne-|rit, at- que ven-|tu- ra i-|
 G16 ||[M:4/2] z16 | z16 | z16 | z16 | z16 | z16 |[M:4/2] z16 | z16 | z16 | z16 | z16 | z16 | %50
w: ra.|||||||||||||
[M:4/2] G8 B6 B2 | A4 d8 c4 | _e4 d4 c6 c2 | F4 B4 (c4 A4) | B4 F4 G8 | G8 ^F4 (G4- || %56
w: Dum ve- ne-|ris ju- di-|ca- re sae- cu-|lum per i\- *|gnem, per i-|gnem, per i\-|
[M:6/2] G4 ^F4 G16) || A12 A4 | B4 B4 c8 | c4 B8 c4 | B4 B4 B6 A2 | B4 d4 d4 d4 | d6 d2 d8 | %63
w: * * gnem.|Re- qui-|em ae- ter-|nam do- na|e- is Do- mi-|ne: et lux pe-|pe- tu- a|
 z4 z4 G8- ||[M:6/2] G4 F4 (E4 D4) E8 ||"^al fine" D16 |] %66
w: lu\-|* ce- at * e-|is.|
V:2
 z4 G8 ^F4 | G4 D4 (_E4 D4- | D4) C4 D8 | z4 ^F4 G8 | F4 F4 (_E8 | D8) C8 | z4 C4 G8- | G4 F4 _E8 | %8
w: Li- be-|ra me, Do\- *|* mi- ne,|de mor-|te ae- ter\-|* na,|in di\-|* e il-|
 D8 D8 ||[M:6/2] D24 || D16 || z8 z4 D4- | D4 G,4 G8 | F4 D4 E4 F4 | G4 (D4 E4) (^F4- | F4 G4 D8) | %16
w: la tre-|men-|da.|Quan\-|* do coe-|li mo- ven- di|sunt et * ter\-|* * ra:|
 z16 | D8 _E6 E2 | D4 G8 F4 | B4 A4 G4 F4 | _E4 C4 D8 | _E4 F4 F8 | B,4 (C2 D2) (_E4 B,2 C2 | %23
w: |dum ve- ne-|ris ju- di-|ca- re sae- cu-|lum per i-|gnem, per i-|gnem, per * i\- * *|
 D16) | D16 || G12 F4 | (G4 F4 _E8) | D8 D4 _E4- | E4 _E8 D4 | _E4 G4 G8- | G4 G4 (F4 A2 G2 | %31
w: |gnem.|Tre- mens|fa\- * *|ctus, fac- tus|* sum e-|go, et ti\-|* me- o, * *|
 F2 G2 A2 B2 A4) A4- | A4 A4 D8 | D4 D4 _E6 E2 | D8 C6 C2 | D4 D4 _E4 E4 || %36
w: * * * * * ti\-|* me- o,|dum dis- cus- si-|o ve- ne-|rit, at- que ven-|
[M:6/2] D2 D2 (_E8 D2 C2 D8) || _E16 ||[M:4/2] z4 D8 D4 | _E8 D4 G4- | G4 F4 _E8 | D4 F4 F4 F4 | %42
w: tu- ra i\- * * *|ra.|Di- es|il- la, di\-|* es i-|rae, ca- la- mi-|
 F8 ^F8 | (G4 D8) F4 | G6 G2 ^F8- | F8 z4 G4- | G4 G4 _A8 | G4 G8 F4 | _E4 E4 (D6 C2 | D8 D4) D4 | %50
w: ta- tis|et * mi-|se- ri- ae,|* di\-|* es ma-|gna et a-|ma ra val\- *|* de. Dum|
 _E6 E2 D4 G4- | G4 F4 B4 A4 | G4 F4 _E4 C4 | D8 _E4 F4 | F8 B,4 (C2 D2) | (_E4 B,2 C2 D8- || %56
w: ve- ne- ris ju\-|* di- ca- re|sae- cu- lum per|i- gnem, ,~per|i- gnem, per *|i\- * * *|
[M:6/2] D8 D16) || D12 D4 | D4 D4 F8 | F4 F8 F4 | G4 G4 F6 F2 | F4 F4 G4 G4 | ^F6 F2 F8 | E12 D4 || %64
w: * gnem.|Re- qui-|em ae- ter-|nam do- na|e- is, Do- mi-|ne: et lux per-|pe- tu- a|lu- ce-|
[M:6/2] ^C8 (C4 D8 C4) || D16 |] %66
w: at e\- * *|is.|
V:3
 d12 d4 | d4 B4 (G4 A4 | B4) (A2 G2) A4 A4 | B8 G4 B4 | (c4 F4 G4 F2 _E2) | F8 z4 F4 | c12 c4 | %7
w: Li- be-|ra me, Do\- *|* mi\- * ne, de|mor- te ae-|ter\- * * * *|na, in|di- e|
 B4 A4 B4 (A4- | A4 G8 ^F4 ||[M:6/2] B8 A16 || G16) || z16 | z16 | z16 | G12 D4 | d8 B4 G4 | %16
w: il- la tre- men\-|||da.||||Quan- do|coe- li mo-|
 A4 B4 c4 A4 | (B2 c2 d8 c4) | d8 z8 | z16 | G8 B6 B2 | A4- d8 c4 | _e4 d4 c4 G4 | B4 B4 A8 | %24
w: ven- di sunt et|ter\- * * *|ra:||dum ve- ne-|ris ju- di-|ca- re sae- cu-|lum per i-|
 G16 || _e12 d4 | (_e4 d4 c8) | B8 B8 | B4 G4 F8 | _E12 E4 | =E6 E2 F8- | F12 F4 | ^F6 F2 G8 | %33
w: gnem.|Tre- mens|fa\- * *|ctus, fa-|ctus sum e-|go, et|ti- me- o,|* et|ti- me- o,|
 G4 =B4 c6 c2 | B8 _A6 A2 | G4 F4 _E4 _e4 ||[M:6/2] B4 c4 B16 || _E16 || %38
w: dum dis- cus- si-|o ve- ne-|rit, at- que ven-|tu- ra i-|ra.|
[M:4/2][K:treble-8] =B12 B4 | c8 B4 _e4- | e2 d2 (d8 c4) | d12 d4 | d4 d4 c6 c2 | B12 A4 | %44
w: Di- es|il- la, di\-|* es i\- *|rae, ca-|la- mi- ta- tis|et mi-|
 B4 c4 d4 A4- | A4 A4 B8 | B4 c8 d4 | _e8 B8 | c8 =B4 c4- | c4 =B2 A2 B8 | c8 z8 | z16 | z4 z4 G8 | %53
w: se- ri- ae, di\-|* es ma-|gna et a-|ma- ra|val- de, val\-||de.||Dum|
 B6 B2 A4 d4- | d4 c4 _e4 d4 | c4 G4 B4 B4 ||[M:6/2] A8 G16 || ^F12 F4 | G4 G4 A8 | A4 d8 c4 | %60
w: ve- ne- ris ju\-|* di- ca- re|sae- cu- lum per|i- gnem.|Re- qui-|em ae- ter-|nam do- na|
 d4 _e4 c6 c2 | d4 d4 B4 B4 | A6 A2 A8 | c12 G4 ||[M:6/2] A8 A16 || ^F16 |] %66
w: e- is, Do- mi-|ne: et lux per-|pe- tu- a|lu- ce-|at e-|is.|
V:4
 G,,6 G,,2 D,4 D,4 | (G,12 F,4 | _E,6) E,2 D,8 | z4 D,4 _E,8 | _E,4 D,4 C,8 | B,,4 B,,4 F,8- | %6
w: Li- be- ra me,|Do\- *|* mi- ne,|de mor-|te ae- ter-|na, in di\-|
 F,4 F,4 _E,8 | D,4 D,4 (G,,4 A,,4 | B,,6 C,2 D,6 E,^F, ||[M:6/2] G,8 D,16 || G,,16) || z16 | z16 | %13
w: * e il-|la tre- men\- *|||da.|||
 z16 | z8 z4 D,4- | D,4 G,,4 G,8 | F,4 D,4 E,4 F,4 | G,4 G,,4 (C,8 | G,8) D,8 | z8 z4 D,4 | %20
w: |Quan\-|* do coe-|li mo- ven- di|sunt et ter\-|* ra:|dum|
 _E,6 E,2 D,4 G,4- | G,4 F,4 B,4 A,4 | G,4 F,4 _E,6 E,2 | D,16 | G,,16 || z16 | z16 | z16 | z16 | %29
w: ve- ne- ris ju\-|* di- ca- re|sae- cu- lum per|i-|gnem.|||||
 z16 | z16 | z16 | z16 | z16 | z16 | z16 || z24 || z16 ||[M:4/2] G,12 G,4 | C,8 G,8 | %40
w: |||||||||Di- es|il- la,|
 _E,4 F,4 (G,4 A,4) | B,12 B,4 | B,4 B,4 A,6 A,2 | G,12 F,4 | _E,6 E,2 D,8- | D,8 z4 _E,4- | %46
w: di- es i\- *|rae. ca-|la- mi- ta- tis|et mi-|se- ri- ae,|* di\-|
 E,4 _E,4 F,8 | _E,8 D,8 | C,8 G,4 _A,4 | (G,16 | C,8 G,8) | D,8 z8 | z4 D,4 _E,6 E,2 | %53
w: * es ma-|gna et|a- ma- ra|val\-||de.|Dum ve- ne-|
 D,4 G,8 F,4 | B,4 A,4 G,4 F,4 | _E,4 E,4 D,8- ||[M:6/2] D,8 G,,16 || D,12 D,4 | G,,4 G,4 F,8 | %59
w: ris ju- di-|ca- re sae- cu-|lum per i\-|* gnem.|Re- qui-|em ae- ter-|
 F,4 B,8 A,4 | G,4 _E,4 F,6 F,2 | B,,4 B,,4 G,,4 G,,4 | D,6 D,2 D,8 | C,12 B,,4 || %64
w: nam do- na|e- is, Do- mi-|ne: et lux per-|pe- tu- a|lu- ce-|
[M:6/2] A,,8 A,,16 || D,16 |] %66
w: at e-|is.|

